!!!OTL: Lasst uns erfreuen
!!!COL:
**kern	**text	**text	**text	**text	**text
*clefG2	*	*	*	*	*
*k[f#c#]	*	*	*	*	*
*M6/4	*	*	*	*	*
*D:	*	*	*	*	*
=	=	=	=	=	=
2d	1.All	2.Thou	3.Thou	4.Dear	5.And
=	=	=	=	=	=
4d	crea-	rush-	flow-	mo-	all
4e	tures	ing	ing	ther	ye
4f#	of	wind	wa-	earth,	men
4d	our	that	ter,	who	of
4f#	God	art	pure	day	ten-
4g	and	so	and	by	der
=	=	=	=	=	=
1a	King	strong	clear,	day	heart,
2d	Lift	Ye	Make	Un-	For-
=	=	=	=	=	=
4d	up	clouds	mu-	fold-	giv-
4e	your	that	sic	est	ing
4f#	voice	sail	for	bless-	o-
4d	and	in	thy	ings	thers,
4f#	with	Heaven	Lord	on	take
4g	us	a-	to	our	your
=	=	=	=	=	=
1a	sing.	long,	hear,	way,	part,
4dd	A-	O	O	O	O
4cc#	lle-	.	.	.	.
=	=	=	=	=	=
2b	lu-	praise	praise	praise	sing
2a	ia!	Him!	Him!	Him!	ye!
4dd	A-	A-	A-	A-	A-
4cc#	lle-	lle-	lle-	lle-	lle-
=	=	=	=	=	=
2b	lu-	lu-	lu-	lu-	lu-
2a	ia!	ia!	ia!	ia!	ia!
2dd	Thou	Thou	Thou	The	Ye
=	=	=	=	=	=
4dd	burn-	ris-	fire	flowers	who
4a	ing	ing	so	and	long
4a	sun	moon,	mas-	fruits	pain
4g	with	in	ter-	that	and
4f#	gol-	praise	ful	in	sor-
4g	den	re-	and	thee	row
=	=	=	=	=	=
1a	beam,	joice,	bright,	grow,	bear,
2dd	Thou	Ye	That	Let	Praise
=	=	=	=	=	=
4dd	sil-	lights	giv-	them	God
4a	ver	of	est	His	and
4a	moon	eve-	man	glo-	on
4g	with	ning,	both	ry	Him
4f#	soft-	find	warmth	al-	cast
4g	er	a	and	so	your
=	=	=	=	=	=
1a	gleam!	voice!	light.	show.	care!
4g	O	O	O	O	O
4f#	.	.	.	.	.
=	=	=	=	=	=
2e	praise	praise	praise	praise	praise
2d	Him!	Him!	Him!	Him!	Him!
4g	O	O	O	O	O
4f#	.	.	.	.	.
=	=	=	=	=	=
2e	praise	praise	praise	praise	praise
2d	Him!	Him!	Him!	Him!	Him!
4dd	A-	A-	A-	A-	A-
4cc#	lle-	lle-	lle-	lle-	lle-
=	=	=	=	=	=
2b	lu-	lu-	lu-	lu-	lu-
2a	ia!	ia!	ia!	ia!	ia!
4dd	A-	A-	A-	A-	A-
4cc#	lle-	lle-	lle-	lle-	lle-
=	=	=	=	=	=
2b	lu-	lu-	lu-	lu-	lu-
2a	ia!	ia!	ia!	ia!	ia!
4g	A-	A-	A-	A-	A-
4f#	lle-	lle-	lle-	lle-	lle-
=	=	=	=	=	=
1.e	lu-	lu-	lu-	lu-	lu-
=	=	=	=	=	=
1d	ia!	ia!	ia!	ia!	ia!
==	==	==	==	==	==
